X:32
T:Polska från Vetlanda
R:Slängpolska
H:Första varianten efter Sågskära
O:Småland
M:3/4
L:1/16
K:Dm
A3^c d2c2 d2e2 | gfef d2d2 ^c4 | A2f2 fed=c dcAc | cBGB B2A2 A4 :|
|: A2ff fefg a2a2 | gagf efef g2g2 | f2ff fefg a2a2 |
gagf efef g2g2 | f3e d3f e2d2 | ^cA=Bc c2d2 d4 :|

